icons/solid/reply.svg

<svg width="24" height="24" viewBox="0 0 24 24" fill="none" xmlns="http://www.w3.org/2000/svg">
<path fill-rule="evenodd" clip-rule="evenodd" d="M11 5C11 4.59554 10.7564 4.2309 10.3827 4.07612C10.009 3.92134 9.57889 4.00689 9.29289 4.29289L2.29289 11.2929C1.90237 11.6834 1.90237 12.3166 2.29289 12.7071L9.29289 19.7071C9.57889 19.9931 10.009 20.0787 10.3827 19.9239C10.7564 19.7691 11 19.4045 11 19V15.9749C12.6915 15.9638 14.8292 16.1085 16.6333 16.5578C17.7208 16.8287 18.6059 17.191 19.1981 17.6338C19.7652 18.0577 20 18.4983 20 19C20 19.5523 20.4477 20 21 20C21.5523 20 22 19.5523 22 19C22 17.0747 21.402 14.3392 19.5809 12.0628C17.8613 9.9134 15.1175 8.25803 11 8.0275V5Z" fill="currentColor"/>
</svg>

<svg width="24" height="24" fill="none" xmlns="http://www.w3.org/2000/svg"><path fill-rule="evenodd" clip-rule="evenodd" d="M11 5a1 1 0 00-1.707-.707l-7 7a1 1 0 000 1.414l7 7A1 1 0 0011 19v-3.025c1.691-.011 3.83.133 5.633.583 1.088.27 1.973.633 2.565 1.076.567.424.802.864.802 1.366a1 1 0 102 0c0-1.925-.598-4.66-2.42-6.937-1.719-2.15-4.462-3.805-8.58-4.036V5z" fill="currentColor"/></svg>
